static/logos/angellistTalent-wordmark-color.svg

<svg width="126" height="19" viewBox="0 0 126 19" fill="none" xmlns="http://www.w3.org/2000/svg">
<path d="M85.3544 14.1142V4.49861H81.3047V3.25708H90.9972V4.49861H86.8753V14.1142H85.3544Z" fill="black"/>
<path d="M96.6939 12.3796C96.6839 12.4611 96.6933 12.5437 96.7211 12.6211C96.7484 12.6986 96.7939 12.769 96.8531 12.827C96.9128 12.8851 96.9844 12.9292 97.0642 12.9561C97.1435 12.9831 97.2281 12.9921 97.3115 12.9826C97.5517 12.9783 97.7877 12.9171 97.9989 12.8043V13.6005C97.8427 13.7589 97.6534 13.8823 97.444 13.9618C97.2346 14.0414 97.0098 14.0753 96.785 14.0612C95.9699 14.0612 95.3913 13.4582 95.2997 12.5388C94.8649 13.4412 93.7427 14.1143 92.4573 14.1143C90.9174 14.1143 89.9219 13.299 89.9219 11.974C89.9219 10.5068 91.2067 9.90378 93.108 9.53435L95.2452 9.1097V8.80819C95.2452 7.74651 94.6129 7.09255 93.5055 7.09255C92.3638 7.09255 91.7486 7.74651 91.5137 8.64895L90.1739 8.48329C90.4827 7.03312 91.6593 5.97144 93.525 5.97144C95.5173 5.97144 96.6939 6.96306 96.6939 8.92498V12.3796ZM95.2452 10.0821L93.4706 10.4537C92.2206 10.7192 91.4244 10.9485 91.4244 11.8848C91.4244 12.5388 91.8769 13.0357 92.7838 13.0357C94.1775 13.0357 95.2452 12.008 95.2452 10.4537V10.0821Z" fill="black"/>
<path d="M100.155 3.25708V14.1142H98.5391V3.25708H100.155Z" fill="black"/>
<path d="M108.741 11.3046C108.357 13.054 107.08 14.1143 105.171 14.1143C102.896 14.1143 101.234 12.56 101.234 10.1574C101.234 7.72092 102.896 5.97144 105.099 5.97144C107.531 5.97144 108.773 7.72092 108.773 9.82232V10.3991H102.681C102.751 11.9004 103.818 12.9586 105.183 12.9586C106.46 12.9586 107.212 12.3415 107.527 11.1583L108.741 11.3046ZM107.29 9.45123C107.237 8.21498 106.555 7.08472 105.103 7.08472C103.721 7.08472 102.9 8.17894 102.726 9.45123H107.29Z" fill="black"/>
<path d="M111.341 14.1143H109.844V6.18916H111.341V7.60437C111.72 6.64202 112.786 5.97144 113.958 5.97144C116.014 5.97144 116.844 7.34965 116.844 9.20031V14.1143H115.347V9.3244C115.347 8.00064 114.716 7.16677 113.471 7.16677C112.279 7.16677 111.341 8.10947 111.341 9.56172V14.1143Z" fill="black"/>
<path d="M118.507 7.4444H117.383V6.67258L117.86 6.58821C118.559 6.45034 118.713 6.10662 118.885 5.38831L119.106 4.34277H119.907V6.41531H122.008V7.4444H119.907V11.9867C119.907 12.6556 120.18 12.9644 120.829 12.9644C121.325 12.9346 121.806 12.7811 122.229 12.5178V13.4768C121.686 13.909 121.009 14.1344 120.317 14.1128C119.26 14.1128 118.507 13.6147 118.507 12.1575V7.4444Z" fill="black"/>
<path d="M9.92969 7.40887C10.6278 7.54276 11.1228 7.8448 11.4146 8.31493C11.7065 8.78506 11.8503 9.52446 11.8461 10.5331C11.8461 12.5376 11.2554 14.176 10.0742 15.4481C8.89294 16.7204 7.38283 17.3614 5.54394 17.3714C4.82274 17.3725 4.1076 17.237 3.43485 16.9718C2.78146 16.7232 2.18333 16.344 1.67554 15.8563C1.15836 15.3864 0.732113 14.8218 0.418885 14.1916C0.145082 13.6343 0.00169625 13.0199 0 12.3965C0 11.7127 0.143817 11.1842 0.431451 10.8109C0.785063 10.3998 1.26928 10.129 1.79911 10.0459C1.69967 9.81599 1.61297 9.58051 1.5394 9.3407C1.49337 9.19826 1.4659 9.05023 1.45772 8.90049C1.45772 8.54145 1.64273 8.17534 2.01274 7.80205C2.37717 7.42811 2.72694 7.24221 3.05367 7.24221C3.20471 7.24399 3.35454 7.26993 3.49769 7.3191C3.68541 7.38512 3.86582 7.4711 4.03596 7.57554C3.43695 5.84318 3.00061 4.50544 2.72694 3.56233C2.45466 2.61992 2.30805 1.96815 2.30805 1.61128C2.30805 1.11763 2.38974 0.741528 2.63478 0.446626C2.93219 0.0854786 3.37831 0 3.80767 0C4.67475 0 4.98264 0.758623 6.48013 5.01119C6.68959 5.58176 6.82364 6.02413 6.92627 6.33401C7.01211 6.08825 7.13568 5.73776 7.2886 5.28472C8.41118 1.97669 8.88874 0.322682 10.1873 0.322682C10.3662 0.314967 10.5445 0.347975 10.7093 0.419312C10.8742 0.490649 11.0213 0.598524 11.1402 0.735116C11.3895 1.04456 11.5165 1.43781 11.4963 1.83779C11.4963 2.18825 11.3664 2.82721 11.1046 3.76107C10.8429 4.69492 10.4595 5.90445 9.92969 7.40887ZM1.55197 12.2748C1.66088 12.4115 1.81168 12.6102 2.00646 12.871C2.52169 13.5961 2.99712 13.958 3.43276 13.9566C3.5778 13.9581 3.71872 13.9074 3.8307 13.8134C3.88046 13.781 3.92221 13.7374 3.95273 13.6859C3.98325 13.6343 4.00169 13.5763 4.00663 13.5163C3.97274 13.3023 3.89262 13.0987 3.77206 12.9201C3.58171 12.5896 3.36675 12.2746 3.12907 11.9777C2.89749 11.6595 2.63963 11.3621 2.35832 11.0888C2.22779 10.9419 2.05321 10.8435 1.86194 10.8088C1.71086 10.8182 1.56401 10.8634 1.43311 10.941C1.3022 11.0185 1.19085 11.1262 1.10795 11.2554C0.876848 11.5561 0.754758 11.929 0.762371 12.3111C0.772658 12.6875 0.854457 13.0584 1.00323 13.4031C1.18055 13.8363 1.41445 14.2432 1.69858 14.6126C2.14605 15.2307 2.73399 15.7286 3.41182 16.0636C4.11782 16.407 4.89173 16.5803 5.6738 16.5701C6.3969 16.5842 7.11421 16.4361 7.77509 16.1363C8.43591 15.8364 9.02414 15.3921 9.49821 14.8348C10.5245 13.6766 11.0369 12.227 11.0355 10.4861C11.0469 10.0556 11.0083 9.62516 10.9204 9.2039C10.8662 8.93873 10.7269 8.69956 10.5245 8.52435C10.2061 8.25223 9.58481 8.00933 8.66046 7.79564C7.71043 7.57833 6.73958 7.47009 5.76595 7.473C5.55775 7.45417 5.34916 7.50441 5.17113 7.61615C5.10715 7.67861 5.05803 7.75521 5.02753 7.83999C4.99704 7.92484 4.98598 8.01568 4.9952 8.10552C4.9952 8.6469 5.29121 9.03866 5.88324 9.28085C6.47528 9.52304 7.43382 9.64416 8.75889 9.64416H9.23852C9.28904 9.64291 9.3392 9.6536 9.38499 9.67551C9.43077 9.69736 9.471 9.72978 9.50241 9.77021C9.57837 9.88154 9.62457 10.0112 9.63646 10.1464C9.38883 10.3345 9.11199 10.479 8.81752 10.5737C8.48406 10.6961 8.16622 10.859 7.87086 11.0588C7.41673 11.3929 7.03287 11.8166 6.74195 12.3047C6.48332 12.7125 6.33851 13.1846 6.32307 13.6702C6.33348 13.9942 6.39429 14.3145 6.5032 14.619C6.58791 14.8403 6.64901 15.0703 6.68539 15.305V15.3883L6.66238 15.4952C6.48521 15.4775 6.31609 15.4111 6.17299 15.3031C6.0299 15.1951 5.91815 15.0495 5.84973 14.8819C5.63046 14.3986 5.52776 13.8689 5.55022 13.3368V13.2279C5.49775 13.2785 5.43672 13.319 5.3701 13.3475C5.30868 13.3718 5.24331 13.3841 5.17742 13.3838C5.10725 13.3844 5.03716 13.3787 4.96797 13.3667C4.90514 13.3539 4.83393 13.3368 4.75854 13.3133C4.78157 13.3975 4.79907 13.4832 4.81089 13.5697C4.82185 13.6348 4.82815 13.7004 4.82974 13.7663C4.83041 13.91 4.8004 14.0521 4.74181 14.1827C4.68321 14.3134 4.59744 14.4294 4.49044 14.5228C4.27193 14.7308 3.98287 14.8442 3.68409 14.8391C3.1926 14.8391 2.69343 14.5948 2.18658 14.1061C1.67973 13.6175 1.4263 13.1381 1.4263 12.668C1.42553 12.5893 1.43539 12.5109 1.45563 12.435C1.47751 12.3743 1.5126 12.3196 1.55825 12.2748H1.55197ZM5.05804 12.5611C5.12796 12.5595 5.19669 12.5423 5.25932 12.5105C5.32195 12.4787 5.37694 12.4332 5.42037 12.3773C5.524 12.2709 5.58328 12.1277 5.58583 11.9777C5.52471 11.6128 5.41624 11.2578 5.26329 10.922C5.04583 10.357 4.78095 9.81219 4.4716 9.29367C4.28659 8.95957 4.05362 8.65563 3.78044 8.39188C3.60782 8.21667 3.37842 8.11175 3.13535 8.09697C3.02849 8.10866 2.92496 8.14191 2.83077 8.19476C2.73658 8.24754 2.65359 8.31891 2.58661 8.40471C2.41903 8.55617 2.3142 8.76707 2.2934 8.99448C2.33016 9.29753 2.43014 9.589 2.58661 9.8493C2.81152 10.2784 3.07367 10.686 3.36993 11.0674C3.65282 11.4679 3.97802 11.8356 4.33965 12.1636C4.64334 12.4307 4.89048 12.5611 5.06432 12.5611H5.05804ZM6.2037 6.79131L4.94703 3.06869C4.74722 2.42891 4.49282 1.80824 4.18676 1.2138C4.00663 0.925306 3.81185 0.786404 3.60241 0.786404C3.52612 0.784148 3.45038 0.800179 3.38127 0.833209C3.31216 0.866246 3.2516 0.915355 3.20447 0.976594C3.0962 1.124 3.0421 1.30551 3.05158 1.48947C3.05158 1.85417 3.19121 2.49028 3.47046 3.39778C3.74972 4.30528 4.15883 5.49415 4.69779 6.96439C4.74247 6.87841 4.81725 6.81281 4.90724 6.78062C5.01941 6.74019 5.13814 6.72202 5.257 6.72719L5.53766 6.73787C5.66123 6.74856 5.89162 6.7678 6.20997 6.79986L6.2037 6.79131ZM7.52528 10.407C7.20566 10.3916 6.88735 10.3552 6.57229 10.2981C6.27989 10.2446 5.99257 10.1652 5.71359 10.0609C5.83716 10.3152 5.95028 10.5695 6.04658 10.8238C6.142 11.0692 6.22245 11.3204 6.28746 11.576C6.46824 11.348 6.66493 11.1338 6.87599 10.9349C7.07972 10.7431 7.29901 10.5695 7.53155 10.4156L7.52528 10.407ZM9.08141 7.20159C9.60226 5.75557 10.0093 4.56029 10.3025 3.61575C10.5957 2.67335 10.7402 2.09636 10.7402 1.88053C10.752 1.6903 10.7011 1.5015 10.5957 1.34415C10.5479 1.28202 10.4863 1.23236 10.4161 1.19929C10.3458 1.16623 10.2688 1.15069 10.1914 1.15396C9.98204 1.15396 9.75163 1.33774 9.52542 1.70743C9.21516 2.27363 8.96452 2.87175 8.7777 3.49181L7.61324 6.94301L9.08141 7.20159Z" fill="black"/>
<path d="M23.0008 3.25708L27.464 14.1142H25.1534L24.0593 11.4314H19.4049L18.3463 14.1142H16.1562L20.5862 3.25708H23.0008ZM20.0558 9.78043H23.3834L21.7488 5.71288H21.6801L20.0558 9.78043Z" fill="black"/>
<path d="M30.1265 14.1036H28V6.18649H30.1265V7.47659C30.5157 6.57783 31.5108 5.97144 32.6783 5.97144C34.7751 5.97144 35.5385 7.40997 35.5385 9.16884V14.1143H33.4226V9.59883C33.4226 8.37755 32.942 7.6787 31.8936 7.6787C30.8112 7.6787 30.1371 8.53881 30.1371 9.86976L30.1265 14.1036Z" fill="black"/>
<path d="M40.2027 11.6328C39.6252 11.6451 39.0504 11.5501 38.5077 11.3525C38.4112 11.4101 38.3315 11.492 38.2764 11.59C38.2213 11.6879 38.1929 11.7986 38.1938 11.9109C38.1938 12.2602 38.4198 12.4881 38.9974 12.4881H42.0735C43.7853 12.4881 44.66 13.4146 44.66 14.6527C44.66 16.5746 42.423 17.3714 40.029 17.3714C37.8966 17.3714 36.0781 16.8298 36.0781 15.3993C36.0781 14.6129 36.7059 14.0546 37.6162 13.9353C37.3086 13.8482 37.038 13.6628 36.8457 13.4075C36.6533 13.1522 36.5499 12.8411 36.5511 12.5216C36.5511 11.8231 37.0408 11.2981 37.792 11.0012C37.4622 10.7885 37.1914 10.496 37.0049 10.1509C36.8183 9.80581 36.722 9.41916 36.7247 9.02693C36.7247 7.38521 38.1749 6.38973 40.2027 6.38973C41.068 6.36753 41.9201 6.60497 42.649 7.07154C42.8815 6.74266 43.1871 6.47214 43.5419 6.28125C43.8966 6.09036 44.2908 5.98432 44.6935 5.97144V7.64456C44.243 7.64415 43.7953 7.71474 43.3668 7.85368C43.5851 8.20441 43.6998 8.6097 43.6974 9.02278C43.6891 10.6373 42.2221 11.6328 40.2027 11.6328ZM40.029 16.1041C41.5671 16.1041 42.6846 15.7548 42.6846 15.004C42.6846 14.4958 42.2661 14.3034 41.5671 14.3034H38.989C38.4302 14.3034 37.9762 14.5314 37.9762 15.0898C37.9762 15.7883 38.7797 16.1041 40.0207 16.1041H40.029ZM40.2216 7.66754C39.4347 7.66754 38.8927 8.14017 38.8927 9.02901C38.8927 9.91785 39.4347 10.3926 40.2216 10.3926C41.0084 10.3926 41.5671 9.91993 41.5671 9.02901C41.5671 8.13809 41.0167 7.66754 40.2132 7.66754H40.2216Z" fill="black"/>
<path d="M52.7184 11.3917C52.3048 13.1048 50.9371 14.1143 48.9061 14.1143C46.4593 14.1143 44.6953 12.5917 44.6953 10.1602C44.6953 7.72864 46.4765 5.97144 48.8522 5.97144C51.4368 5.97144 52.7722 7.72234 52.7722 9.82089V10.5728H46.8276C46.8533 11.1062 47.0934 11.6086 47.4962 11.9718C47.8991 12.3348 48.4324 12.5296 48.9814 12.5142C50.0433 12.5142 50.6722 12.0765 50.978 11.2011L52.7184 11.3917ZM50.6679 9.27423C50.5968 8.38206 50.039 7.52546 48.8328 7.52546C47.6267 7.52546 47.0516 8.31295 46.8556 9.27423H50.6679Z" fill="black"/>
<path d="M55.4586 3.25708V14.1142H53.3047V3.25708H55.4586Z" fill="black"/>
<path d="M59.1223 3.25708V12.3253H63.0011V14.1142H57.0781V3.25708H59.1223Z" fill="black"/>
<path d="M63.5391 3.25708H65.6929V5.27331H63.5391V3.25708ZM65.6763 6.51564V14.1142H63.5793V6.52389L65.6763 6.51564Z" fill="black"/>
<path d="M68.5669 11.2714C68.6893 12.1981 69.385 12.6719 70.4403 12.6719C71.207 12.6719 71.8317 12.4098 71.8317 11.848C71.8317 11.3239 71.4838 11.0953 70.7195 10.9737L69.5015 10.7641C67.8671 10.4999 66.9632 9.88775 66.9632 8.45794C66.9632 6.99037 68.1984 5.97144 70.1451 5.97144C72.2664 5.97144 73.5365 6.93586 73.6844 8.65079L71.9624 8.71996C71.8228 7.84573 71.2318 7.40754 70.1369 7.40754C69.3891 7.40754 68.9017 7.74093 68.9017 8.26503C68.9017 8.68434 69.1809 8.93175 69.7346 9.01767L71.1922 9.26301C72.8101 9.52717 73.7654 10.2085 73.7654 11.6635C73.7654 13.238 72.4102 14.1143 70.4344 14.1143C68.4586 14.1143 66.9052 13.238 66.7656 11.3469L68.5669 11.2714Z" fill="black"/>
<path d="M74.8594 7.84108H73.7656V6.63429L74.288 6.54885C75.0345 6.43081 75.2421 6.05633 75.4149 5.36032L75.6586 4.34277H76.9269V6.41448H79.0068V7.83906H76.9269V11.545C76.9269 12.1901 77.222 12.4791 77.8485 12.4791C78.3034 12.4518 78.7471 12.3304 79.1505 12.123V13.4641C78.5424 13.9144 77.7929 14.1433 77.031 14.1113C75.8497 14.1113 74.8594 13.6004 74.8594 12.0029V7.84108Z" fill="black"/>
</svg>

<svg xmlns="http://www.w3.org/2000/svg" width="424.421" height="64" fill="none" viewBox="0 0 126 19"><path fill="#000" d="M85.354 14.114V4.5h-4.05V3.257h9.693V4.5h-4.122v9.615h-1.52ZM96.694 12.38a.54.54 0 0 0 .37.576c.08.027.164.036.247.027.24-.005.477-.066.688-.179v.796a1.554 1.554 0 0 1-1.214.461c-.815 0-1.394-.603-1.485-1.522-.435.902-1.557 1.575-2.843 1.575-1.54 0-2.535-.815-2.535-2.14 0-1.467 1.285-2.07 3.186-2.44l2.137-.424v-.302c0-1.061-.632-1.715-1.74-1.715-1.141 0-1.756.654-1.991 1.556l-1.34-.166c.309-1.45 1.485-2.512 3.351-2.512 1.992 0 3.169.992 3.169 2.954v3.455Zm-1.449-2.298-1.774.372c-1.25.265-2.047.494-2.047 1.43 0 .655.453 1.152 1.36 1.152 1.393 0 2.461-1.028 2.461-2.582v-.372ZM100.155 3.257v10.857h-1.616V3.257h1.616ZM108.741 11.305c-.384 1.749-1.661 2.81-3.57 2.81-2.275 0-3.937-1.555-3.937-3.958 0-2.436 1.662-4.186 3.865-4.186 2.432 0 3.674 1.75 3.674 3.851v.577h-6.092c.07 1.501 1.137 2.56 2.502 2.56 1.277 0 2.029-.617 2.344-1.8l1.214.146ZM107.29 9.45c-.053-1.236-.735-2.366-2.187-2.366-1.382 0-2.203 1.094-2.377 2.366h4.564ZM111.341 14.114h-1.497V6.19h1.497v1.415c.379-.962 1.445-1.633 2.617-1.633 2.056 0 2.886 1.379 2.886 3.23v4.913h-1.497v-4.79c0-1.323-.631-2.157-1.876-2.157-1.192 0-2.13.942-2.13 2.395v4.552ZM118.507 7.444h-1.124v-.771l.477-.085c.699-.138.853-.481 1.025-1.2l.221-1.045h.801v2.072h2.101v1.03h-2.101v4.542c0 .669.273.977.922.977.496-.03.977-.183 1.4-.446v.959a2.923 2.923 0 0 1-1.912.636c-1.057 0-1.81-.498-1.81-1.955V7.444ZM9.93 7.409c.698.134 1.193.436 1.485.906.292.47.435 1.21.431 2.218 0 2.005-.59 3.643-1.772 4.915-1.181 1.272-2.691 1.913-4.53 1.923a5.726 5.726 0 0 1-2.11-.4 5.22 5.22 0 0 1-1.758-1.115 5.64 5.64 0 0 1-1.257-1.664A4.097 4.097 0 0 1 0 12.396c0-.683.144-1.212.431-1.585a2.269 2.269 0 0 1 1.368-.765c-.1-.23-.186-.465-.26-.705a1.74 1.74 0 0 1-.081-.44c0-.36.185-.726.555-1.099.364-.374.714-.56 1.04-.56.152.002.302.028.445.077.187.066.368.152.538.257-.599-1.733-1.035-3.07-1.31-4.014-.271-.942-.418-1.594-.418-1.95 0-.494.082-.87.327-1.165C2.932.085 3.378 0 3.808 0c.867 0 1.175.759 2.672 5.011.21.57.344 1.013.446 1.323.086-.246.21-.596.363-1.05C8.41 1.978 8.889.324 10.187.324a1.185 1.185 0 0 1 .953.412c.25.31.377.703.356 1.103 0 .35-.13.99-.391 1.923A60.088 60.088 0 0 1 9.93 7.41Zm-8.378 4.866c.109.136.26.335.454.596.516.725.991 1.087 1.427 1.086a.609.609 0 0 0 .398-.144.388.388 0 0 0 .176-.297 1.48 1.48 0 0 0-.235-.596 7.487 7.487 0 0 0-.643-.942 6.9 6.9 0 0 0-.77-.89.873.873 0 0 0-.497-.28.957.957 0 0 0-.754.447c-.231.301-.353.674-.346 1.056.01.377.092.747.241 1.092.178.433.411.84.696 1.21a4.673 4.673 0 0 0 1.713 1.45 5.02 5.02 0 0 0 2.262.507 4.855 4.855 0 0 0 2.101-.434c.66-.3 1.25-.744 1.723-1.301 1.027-1.158 1.539-2.608 1.538-4.349.01-.43-.028-.86-.116-1.282a1.222 1.222 0 0 0-.396-.68c-.318-.272-.94-.515-1.864-.728-.95-.218-1.92-.326-2.894-.323a.956.956 0 0 0-.595.143.594.594 0 0 0-.176.49c0 .54.296.933.888 1.175.592.242 1.55.363 2.876.363h.48a.32.32 0 0 1 .263.126.79.79 0 0 1 .134.376 2.742 2.742 0 0 1-.818.428 4.389 4.389 0 0 0-.947.485 4.242 4.242 0 0 0-1.13 1.246c-.258.408-.402.88-.418 1.365.01.324.071.645.18.949.085.221.146.451.182.686v.083l-.023.107a.973.973 0 0 1-.489-.192 1.002 1.002 0 0 1-.323-.421 3.395 3.395 0 0 1-.3-1.545v-.11a.517.517 0 0 1-.373.156c-.07.001-.14-.004-.209-.016a2.139 2.139 0 0 1-.21-.054 1.997 1.997 0 0 1 .072.453 1.006 1.006 0 0 1-.34.757 1.141 1.141 0 0 1-.806.316c-.491 0-.99-.244-1.497-.733-.507-.489-.76-.968-.76-1.438-.001-.079.008-.157.029-.233a.427.427 0 0 1 .102-.16h-.006Zm3.506.286a.468.468 0 0 0 .362-.184.587.587 0 0 0 .166-.4 4.235 4.235 0 0 0-.323-1.055 10.632 10.632 0 0 0-.791-1.628 3.837 3.837 0 0 0-.692-.902.99.99 0 0 0-.645-.295.8.8 0 0 0-.548.308.906.906 0 0 0-.294.59c.037.303.137.594.294.854.225.43.487.837.783 1.218.283.4.608.769.97 1.097.303.267.55.397.724.397h-.006Zm1.146-5.77L4.947 3.07c-.2-.64-.454-1.26-.76-1.855-.18-.289-.375-.428-.585-.428a.48.48 0 0 0-.398.19.798.798 0 0 0-.152.513c0 .365.14 1.001.418 1.909a74.8 74.8 0 0 0 1.228 3.566.381.381 0 0 1 .21-.183.914.914 0 0 1 .349-.054l.28.01c.124.012.355.03.673.063l-.006-.009Zm1.321 3.616a7.319 7.319 0 0 1-.953-.109 5.045 5.045 0 0 1-.858-.237c.123.254.236.508.333.763.095.245.175.496.24.752a6.02 6.02 0 0 1 .589-.641c.204-.192.423-.366.656-.52l-.007-.008Zm1.556-3.205c.521-1.446.928-2.642 1.222-3.586.293-.943.437-1.52.437-1.735a.868.868 0 0 0-.144-.537.49.49 0 0 0-.405-.19c-.209 0-.44.184-.666.553a9.29 9.29 0 0 0-.747 1.785L7.613 6.943l1.468.259ZM23 3.257l4.464 10.857h-2.31l-1.095-2.683h-4.654l-1.059 2.683h-2.19l4.43-10.857h2.415ZM20.057 9.78h3.327L21.75 5.713h-.069L20.056 9.78ZM30.127 14.104H28V6.186h2.127v1.29c.389-.898 1.384-1.505 2.551-1.505 2.097 0 2.86 1.439 2.86 3.198v4.945h-2.115V9.6c0-1.221-.481-1.92-1.53-1.92-1.082 0-1.756.86-1.756 2.19l-.01 4.235ZM40.203 11.633a4.664 4.664 0 0 1-1.695-.28.644.644 0 0 0-.314.558c0 .35.226.577.803.577h3.077c1.711 0 2.586.927 2.586 2.165 0 1.922-2.237 2.718-4.631 2.718-2.132 0-3.95-.541-3.95-1.972 0-.786.627-1.344 1.537-1.464a1.464 1.464 0 0 1-1.065-1.413c0-.699.49-1.224 1.241-1.52a2.33 2.33 0 0 1-1.067-1.975c0-1.642 1.45-2.637 3.478-2.637a4.332 4.332 0 0 1 2.446.682 2.605 2.605 0 0 1 2.044-1.1v1.673c-.45 0-.898.07-1.326.209.218.35.333.756.33 1.169-.008 1.614-1.475 2.61-3.494 2.61Zm-.174 4.471c1.538 0 2.656-.35 2.656-1.1 0-.508-.419-.7-1.118-.7H38.99c-.559 0-1.013.227-1.013.786 0 .698.804 1.014 2.045 1.014h.008Zm.193-8.436c-.787 0-1.33.472-1.33 1.361s.543 1.364 1.33 1.364c.786 0 1.345-.473 1.345-1.364 0-.89-.55-1.361-1.354-1.361h.009ZM52.718 11.392c-.413 1.713-1.78 2.722-3.812 2.722-2.447 0-4.21-1.522-4.21-3.954 0-2.431 1.78-4.189 4.156-4.189 2.585 0 3.92 1.751 3.92 3.85v.752h-5.944c.025.533.265 1.036.668 1.399a2.13 2.13 0 0 0 1.485.542c1.062 0 1.691-.438 1.997-1.313l1.74.19Zm-2.05-2.118c-.071-.892-.629-1.749-1.835-1.749s-1.781.788-1.977 1.75h3.812ZM55.459 3.257v10.857h-2.154V3.257h2.154ZM59.122 3.257v9.068h3.88v1.79h-5.924V3.256h2.044ZM63.54 3.257h2.153v2.016h-2.154V3.257Zm2.136 3.259v7.598H63.58v-7.59l2.097-.008ZM68.567 11.271c.122.927.818 1.4 1.873 1.4.767 0 1.392-.261 1.392-.823 0-.524-.348-.753-1.112-.874l-1.219-.21c-1.634-.264-2.538-.876-2.538-2.306 0-1.468 1.235-2.487 3.182-2.487 2.121 0 3.392.965 3.54 2.68l-1.723.069c-.14-.874-.73-1.312-1.825-1.312-.748 0-1.235.333-1.235.857 0 .42.279.667.833.753l1.457.245c1.618.264 2.573.946 2.573 2.4 0 1.575-1.355 2.451-3.33 2.451-1.976 0-3.53-.876-3.67-2.767l1.802-.076ZM74.86 7.841h-1.094V6.634l.522-.085c.746-.118.954-.493 1.127-1.189l.244-1.017h1.268v2.071h2.08V7.84h-2.08v3.706c0 .645.295.934.921.934a3.278 3.278 0 0 0 1.302-.356v1.341c-.608.45-1.357.68-2.119.647-1.181 0-2.172-.51-2.172-2.108V7.84Z"/></svg>
